Origami/32x32/apps/rochard.svg

<svg width="32" height="32" version="1" xmlns="http://www.w3.org/2000/svg">
 <rect transform="matrix(0,-1,-1,0,0,0)" x="-31" y="-30" width="28" height="28" rx="1.4" ry="1.4" style="opacity:.2"/>
 <rect transform="matrix(0,-1,-1,0,0,0)" x="-30" y="-30" width="28" height="28" rx="1.4" ry="1.4" style="fill:#4f4f4f"/>
 <path d="m23 6c-4.159756 0-7.435351 1.8284221-9.638672 4.373047-2.203321 2.544625-3.361328 5.793494-3.361328 8.726562v8.400391 0.5h7v-1-7.900391c0-1.304762 0.385161-2.96551 1.318359-4.255859 0.933199-1.290349 2.374498-2.244141 4.681641-2.244141v-0.5-0.5-1.7988278-1-1.8007812-0.5-0.5zm-1 1.0546875v1.8007813c-4.771695 0.4938703-9 4.4802112-9 10.24414v7.900391h-2v-7.900391c0-2.666931 1.077731-5.71689 3.117188-8.072265 1.858415-2.1462926 4.502195-3.7092683 7.882812-3.9726565zm0 2.8085937v1.8007808c-2.062947 0.254842-3.547063 1.286913-4.492188 2.59375-1.091801 1.509653-1.507812 3.346559-1.507812 4.841797v7.900391h-2v-7.900391c0-5.236284 3.75668-8.753702 8-9.2363278z" style="opacity:.2"/>
 <rect x="10" y="26" width="7" height="1" style="fill:#ffba40"/>
 <rect transform="rotate(90)" x="5.5" y="-23" width="5.6" height="1" style="fill:#ffba40"/>
 <path d="m10.5 26.5v-8.4c0-5.6 4.471106-12.6 12.5-12.6" style="fill:none;stroke:#ffba40"/>
 <path d="m13.5 26.5v-8.4c0-5.904596 4.6-9.8 9.5-9.8" style="fill:none;stroke:#ffba40"/>
 <path d="m16.5 26.5v-8.4c0-2.8 1.6-7 6.5-7" style="fill:none;stroke:#ffba40"/>
 <path d="M 3.4003906 2 C 2.6247906 2 2 2.6247906 2 3.4003906 L 2 4.4003906 C 2 3.6247906 2.6247906 3 3.4003906 3 L 28.599609 3 C 29.375209 3 30 3.6247906 30 4.4003906 L 30 3.4003906 C 30 2.6247906 29.375209 2 28.599609 2 L 3.4003906 2 z" style="fill:#ffffff;opacity:.1"/>
</svg>

<svg xmlns="http://www.w3.org/2000/svg" width="32" height="32" version="1">
 <rect style="opacity:0.2" width="28" height="28" x="-31" y="-30" rx="1.4" ry="1.4" transform="matrix(0,-1,-1,0,0,0)"/>
 <rect style="fill:#4f4f4f" width="28" height="28" x="-30" y="-30" rx="1.4" ry="1.4" transform="matrix(0,-1,-1,0,0,0)"/>
 <path style="opacity:0.2" d="M 23,6 C 18.840244,6 15.564649,7.8284221 13.361328,10.373047 11.158007,12.917672 10,16.166541 10,19.099609 L 10,27.5 l 0,0.5 7,0 0,-1 0,-7.900391 c 0,-1.304762 0.385161,-2.96551 1.318359,-4.255859 C 19.251558,13.553401 20.692857,12.599609 23,12.599609 l 0,-0.5 0,-0.5 0,-1.7988278 0,-1 L 23,7 23,6.5 23,6 Z m -1,1.0546875 0,1.8007813 C 17.228305,9.3493391 13,13.33568 13,19.099609 L 13,27 l -2,0 0,-7.900391 c 0,-2.666931 1.077731,-5.71689 3.117188,-8.072265 C 15.975603,8.8810514 18.619383,7.3180757 22,7.0546875 Z m 0,2.8085937 0,1.8007808 c -2.062947,0.254842 -3.547063,1.286913 -4.492188,2.59375 C 16.416011,15.767465 16,17.604371 16,19.099609 L 16,27 l -2,0 0,-7.900391 c 0,-5.236284 3.75668,-8.753702 8,-9.2363278 z"/>
 <rect style="fill:#ffba40" width="7" height="1" x="10" y="26"/>
 <rect style="fill:#ffba40" width="5.6" height="1" x="5.5" y="-23" transform="matrix(0,1,-1,0,0,0)"/>
 <path style="fill:none;stroke:#ffba40" d="m 10.5,26.5 0,-8.4 C 10.5,12.5 14.971106,5.5 23,5.5 l 0,0"/>
 <path style="fill:none;stroke:#ffba40" d="m 13.5,26.5 0,-8.4 c 0,-5.904596 4.6,-9.8 9.5,-9.8 l 0,0"/>
 <path style="fill:none;stroke:#ffba40" d="m 16.5,26.5 0,-8.4 c 0,-2.8 1.6,-7 6.5,-7 l 0,0"/>
 <path style="fill:#ffffff;opacity:0.1" d="M 3.4003906 2 C 2.6247906 2 2 2.6247906 2 3.4003906 L 2 4.4003906 C 2 3.6247906 2.6247906 3 3.4003906 3 L 28.599609 3 C 29.375209 3 30 3.6247906 30 4.4003906 L 30 3.4003906 C 30 2.6247906 29.375209 2 28.599609 2 L 3.4003906 2 z"/>
</svg>
